X: 1
T: Bulgarian Red
M: 4/4
L: 1/8
R: reel
K: Amin
Addc d2 dB|c2 cA BGGB|Addc d2 de|f2 fa geef|Addc d2 dB|
c2 cA BGGA|B2 BG c2 ce|1f2 fa geef:|2f2 fa geef|]
dA (3AAA fAeA|dA (3AAA dece|dA (3AAA fAeA|f2 fa geef|dA (3AAA fAeA|
dA (3AAA decA|B2 BG c2 ce|1f2 fa geef:|2f2 fa geef|]
